!!!OTL: Ritter und Magd Es schlaeft ein Graf bei seinem Maedel
!!!ARE: Europa, Osteuropa, Ungarn, Nemetker Komitat Tolnau
!!!YOR: 3, S. 17
!!    1935 aufgezeichnet (neuere Fassung, vgl. Q0055I)
!!!SCT: Q0055J
!!!YEM: Copyright 1995, estate of Helmut Schaffrath.
**kern
*ICvox
*Ivox
*M6/4
*k[f#]
*G:
{4b
=1
2dd
4dd
4dd
4b
4a
=2
2g
4b
4b
4b}
{4dd
=3
2a
4b
4cc
4.dd
8cc
=4
4cc
4b
2.r}
{4dd
=5
2dd
4gg
2gg
4gg
=6
4gg
4aa
4gg
4ff#
4dd}
{4cc
=7
2b
4dd
2gg
4b
=8
4ee
4dd
2.r}
{4dd
=9
2dd
4gg
2bb
4aa
=10
4aa
4gg
2.r}
==
!!!AGN: Ballade, Betrug, Schwangerschaft, Tod, Selbstmord, Herr und Magd
!! Zweistimmig notiert. Oberstimme kodiert.
!!!ONB: ESAC (Essen Associative Code) Database: BALLADE
!!!AMT: compound duple
!!!AIN: vox
!!!EED: Helmut Schaffrath
!!!EEV: 1.0
*-
